X: 124
T: Mrs. Mossman
R:Strathspey
S:MacDonald - Skye Collection
N:pg.59
M:C
L:1/8
K:D
F|DddF A>d F>d|DddF E2 E>F|DddF Ad FD|C<A, B,>C D2 DE|D d2 F A>d F>d|
D d2 F E2 E>F|D d2 F A>d FA|B>ABc d2d||g|f>e da f<d a>d|f>e df [A2e2] [Ae]g|
f>e fa f<d a>A|B>Abc d2 dg|f>e da f<d a>d|f>e df [A2e2] [Ae]g|f>e fa f<d a>A|
B>ABc d2 dg|f>e da f<d a>d|f>e df [A2e2] [Ae]f/g/|a>fg>e f>de>c|d>B AF D2D||


